svg/fluentui-system-icons/ic_fluent_archive_settings_24_filled.svg

<svg width="24" height="24" viewBox="0 0 24 24" fill="none" xmlns="http://www.w3.org/2000/svg">
<path d="M3 4.5C3 3.67157 3.67157 3 4.5 3H19.5C20.3284 3 21 3.67157 21 4.5V6C21 6.82843 20.3284 7.5 19.5 7.5H4.5C3.67157 7.5 3 6.82843 3 6V4.5ZM4 9H20V11.4982C19.2304 11.1772 18.3859 11 17.5 11C16.4178 11 15.3974 11.2645 14.4998 11.7323C14.4904 11.3263 14.1583 11 13.75 11H10.25C9.83579 11 9.5 11.3358 9.5 11.75C9.5 12.1642 9.83579 12.5 10.25 12.5H13.3464C11.9127 13.6923 11 15.4896 11 17.5C11 18.7886 11.375 19.9897 12.0218 21H7.75C5.67893 21 4 19.3211 4 17.25V9ZM14.2772 13.9759C14.592 15.0661 13.9376 16.1995 12.836 16.4721L12.2518 16.6166C12.2069 16.9043 12.1836 17.1995 12.1836 17.5003C12.1836 17.815 12.2091 18.1235 12.2582 18.4237L12.7976 18.5536C13.9102 18.8216 14.5715 19.9666 14.2476 21.0641L14.0613 21.6954C14.5005 22.081 15.0009 22.3942 15.5455 22.6169L16.0388 22.0982C16.8273 21.269 18.1496 21.2692 18.9379 22.0987L19.4366 22.6235C19.9801 22.4032 20.4801 22.093 20.9194 21.7106L20.7214 21.0247C20.4066 19.9344 21.061 18.801 22.1626 18.5285L22.7463 18.384C22.7912 18.0963 22.8145 17.8011 22.8145 17.5003C22.8145 17.1856 22.789 16.877 22.7399 16.5767L22.2009 16.4469C21.0884 16.179 20.4271 15.034 20.751 13.9364L20.9371 13.3056C20.498 12.9198 19.9975 12.6066 19.4529 12.3838L18.9598 12.9023C18.1713 13.7316 16.849 13.7313 16.0607 12.9018L15.5619 12.377C15.0184 12.5972 14.5184 12.9073 14.0791 13.2897L14.2772 13.9759ZM17.4991 19.0003C16.6984 19.0003 16.0494 18.3287 16.0494 17.5003C16.0494 16.6719 16.6984 16.0003 17.4991 16.0003C18.2997 16.0003 18.9487 16.6719 18.9487 17.5003C18.9487 18.3287 18.2997 19.0003 17.4991 19.0003Z" fill="#212121"/>
</svg>

<svg xmlns="http://www.w3.org/2000/svg" width="24" height="24"><path d="M3 4.5A1.5 1.5 0 0 1 4.5 3h15A1.5 1.5 0 0 1 21 4.5V6a1.5 1.5 0 0 1-1.5 1.5h-15A1.5 1.5 0 0 1 3 6V4.5ZM4 9h16v2.498A6.48 6.48 0 0 0 17.5 11a6.473 6.473 0 0 0-3 .732.75.75 0 0 0-.75-.732h-3.5a.75.75 0 0 0 0 1.5h3.096a6.487 6.487 0 0 0-2.346 5 6.47 6.47 0 0 0 1.022 3.5H7.75A3.75 3.75 0 0 1 4 17.25V9Zm10.277 4.976a2 2 0 0 1-1.441 2.496l-.584.145a5.729 5.729 0 0 0 .006 1.807l.54.13a2 2 0 0 1 1.45 2.51l-.187.631c.44.386.94.7 1.485.922l.493-.519a2 2 0 0 1 2.899 0l.499.526a5.282 5.282 0 0 0 1.482-.913l-.198-.686a2 2 0 0 1 1.442-2.496l.583-.145a5.729 5.729 0 0 0-.006-1.807l-.54-.13a2 2 0 0 1-1.449-2.51l.186-.631a5.278 5.278 0 0 0-1.484-.922l-.493.518a2 2 0 0 1-2.9 0l-.498-.525c-.544.22-1.044.53-1.483.913l.198.686ZM17.5 19c-.8 0-1.45-.671-1.45-1.5 0-.828.65-1.5 1.45-1.5.8 0 1.45.672 1.45 1.5 0 .829-.65 1.5-1.45 1.5Z"/></svg>
